Costumes/s-block.svg

<?xml version="1.0" encoding="UTF-8" standalone="no"?>
<svg
   version="1.1"
   width="34.150539"
   height="79.419861"
   id="svg5"
   sodipodi:docname="s-block.svg"
   xmlns:inkscape="http://www.inkscape.org/namespaces/inkscape"
   xmlns:sodipodi="http://sodipodi.sourceforge.net/DTD/sodipodi-0.dtd"
   xmlns="http://www.w3.org/2000/svg"
   xmlns:svg="http://www.w3.org/2000/svg">
  <defs
     id="defs9" />
  <sodipodi:namedview
     id="namedview7"
     pagecolor="#ffffff"
     bordercolor="#000000"
     borderopacity="0.25"
     inkscape:showpageshadow="2"
     inkscape:pageopacity="0.0"
     inkscape:pagecheckerboard="0"
     inkscape:deskcolor="#d1d1d1" />
  <!-- Exported by Scratch - http://scratch.mit.edu/ -->
  <g
     id="ID0.35889380099251866"
     transform="translate(-0.8465932,-0.69270613)">
    <path
       id="ID0.9205659148283303"
       d="m 312,346 c 1,0 2,0 3,0 0.379,6.622 3.831,10.169 5,16 -1.941,6.982 -6.726,7.912 -11,14 7.29,8.043 17.949,12.718 19,27 0,1.333 0,2.667 0,4 -4.123,16.877 -10.013,31.987 -24,39 -1.667,0 -3.333,0 -5,0 -4.919,-5.081 -8.921,-11.079 -12,-18 6.375,-6.406 16.973,-9.809 17,-19 0.033,-11.128 -18.25,-14.611 -19,-27 0,-1.667 0,-3.333 0,-5 4.885,-14.449 11.86,-26.807 27,-31 z m -19,18 c -0.287,12.251 -2.393,16.828 4,24 4.311,4.837 11.372,6.301 13,11 3.295,9.512 -3.217,19.88 -12,25 1.118,4.882 2.231,9.769 7,11 9.903,-10.38 24.273,-21.185 19,-38 -3.278,-10.453 -20.326,-13.164 -21,-23 -0.506,-7.379 6.936,-11.64 13,-12 -1.75,-3.917 -2.028,-9.305 -5,-12 -6.663,4.004 -13.812,7.521 -18,14 z"
       transform="matrix(0.79419857,0,0,0.79419857,-225.5,-274.1)" />
    <path
       id="ID0.5772864166647196"
       fill="#ff9400"
       d="m 311,350 c 2.972,2.695 3.25,8.083 5,12 -6.064,0.36 -13.506,4.621 -13,12 0.674,9.836 17.722,12.547 21,23 5.273,16.815 -9.097,27.62 -19,38 -4.769,-1.231 -5.882,-6.118 -7,-11 8.783,-5.12 15.295,-15.488 12,-25 -1.628,-4.699 -8.689,-6.163 -13,-11 -6.393,-7.172 -4.287,-11.749 -4,-24 4.188,-6.479 11.337,-9.996 18,-14 z"
       transform="matrix(0.79419857,0,0,0.79419857,-225.5,-274.1)" />
  </g>
</svg>

<svg version="1.1" width="35" height="81" xmlns="http://www.w3.org/2000/svg" xmlns:xlink="http://www.w3.org/1999/xlink">
  <!-- Exported by Scratch - http://scratch.mit.edu/ -->
  <g id="ID0.35889380099251866">
    <path id="ID0.9205659148283303" d="M 312 346 C 313 346 314 346 315 346 C 315.379 352.622 318.831 356.169 320 362 C 318.059 368.982 313.274 369.912 309 376 C 316.290 384.043 326.949 388.718 328 403 C 328 404.333 328 405.667 328 407 C 323.877 423.877 317.987 438.987 304 446 C 302.333 446 300.667 446 299 446 C 294.081 440.919 290.079 434.921 287 428 C 293.375 421.594 303.973 418.191 304 409 C 304.033 397.872 285.750 394.389 285 382 C 285 380.333 285 378.667 285 377 C 289.885 362.551 296.860 350.193 312 346 Z M 293 364 C 292.713 376.251 290.607 380.828 297 388 C 301.311 392.837 308.372 394.301 310 399 C 313.295 408.512 306.783 418.880 298 424 C 299.118 428.882 300.231 433.769 305 435 C 314.903 424.620 329.273 413.815 324 397 C 320.722 386.547 303.674 383.836 303 374 C 302.494 366.621 309.936 362.360 316 362 C 314.250 358.083 313.972 352.695 311 350 C 304.337 354.004 297.188 357.521 293 364 Z " transform="matrix(0.7941985726356506, 0, 0, 0.7941985726356506, -225.5, -274.1)"/>
    <path id="ID0.5772864166647196" fill="#FF9400" d="M 311 350 C 313.972 352.695 314.250 358.083 316 362 C 309.936 362.360 302.494 366.621 303 374 C 303.674 383.836 320.722 386.547 324 397 C 329.273 413.815 314.903 424.620 305 435 C 300.231 433.769 299.118 428.882 298 424 C 306.783 418.880 313.295 408.512 310 399 C 308.372 394.301 301.311 392.837 297 388 C 290.607 380.828 292.713 376.251 293 364 C 297.188 357.521 304.337 354.004 311 350 Z " transform="matrix(0.7941985726356506, 0, 0, 0.7941985726356506, -225.5, -274.1)"/>
  </g>
</svg>
